/* XPM */
static char * east_xpm[] = {
"64 64 4 1",
" 	c #322814",
".	c #C8A03C",
"+	c #8C6E28",
"@	c #B49650",
"                                                                ",
" ............................... ...............................",
" .+++@++++++@++++++@++++++@+++++ .+++@++++++@++++++@++++++@+++++",
" .++@++++++@++++++@++++++@++++++ .++@++++++@++++++@++++++@++++++",
" .+@++++++@++++++@++++++@++++++@ .+@++++++@++++++@++++++@++++++@",
" .@++++++@++++++@++++++@++++++@+ .@++++++@++++++@++++++@++++++@+",
" .++++++@++++++@++++++@++++++@++ .++++++@++++++@++++++@++++++@++",
" .+++++@++++++@++++++@++++++@+++ .+++++@++++++@++++++@++++++@+++",
"++++@++++++@++++ .++++@++++++@++++++@++++++@++++ .++++@++++++@++",
"+++@++++++@+++++ .+++@++++++@++++++@++++++@+++++ .+++@++++++@+++",
"++@++++++@++++++ .++@++++++@++++++@++++++@++++++ .++@++++++@++++",
"+@++++++@++++++@ .+@++++++@++++++@++++++@++++++@ .+@++++++@+++++",
"@++++++@++++++@+ .@++++++@++++++@++++++@++++++@+ .@++++++@++++++",
"++++++@++++++@++ .++++++@++++++@++++++@++++++@++ .++++++@++++++@",
"+++++@++++++@+++ .+++++@++++++@++++++@++++++@+++ .+++++@++++++@+",
"++++@++++++@++++ .++++@++++++@++++++@++++++@++++ .++++@++++++@++",
"                                                                ",
" ............................... ...............................",
" .+++@++++++@++++++@++++++@+++++ .+++@++++++@++++++@++++++@+++++",
" .++@++++++@++++++@++++++@++++++ .++@++++++@++++++@++++++@++++++",
" .+@+        ++++@++++++@++++.....+@++++++@++++++@++++++@++++++@",
" .@++ @@@@@@@+++@++++++@+++++.@+ .@++++++@++++++@++++++@++++++@+",
" .+++ @+@++++++@++++++@++++++.....++++++@++++++@++++++@++++++@++",
" .+++ @@++++++@++++++@++++++@.++ .+++++@++++++@++++++@++++++@+++",
"++++@ @++++@++++ .++++@++++++.....++@++++++@++++ .++++@++++++@++",
"+++@+      +++++ .+++@++++++@++++++@++++++@+++++ .+++@++++++@+++",
"++@++ @@@@++++++ .++@++++++@++++++@++++++@++++++ .++@++++++@++++",
"+@+++ @+@++++++@ .+@++++++@++++++@++++++@++++++@ .+@++++++@+++++",
"@++++ @@++++++@+ .@++++++@++++++@++++++@++++++@+ .@++++++@++++++",
"+++++ @++++++@++ .++++++@++++++@++++++@++++++@++ .++++++@++++++@",
"+++++ @+++++@+++ .+++++@++++++@++++++@++++++@+++ .+++++@++++++@+",
"++++@ @@@@@@@+++ .++++@++++++@++++++@++++++@++++ .++++@++++++@++",
"                                                                ",
" ............................... ...............................",
" .+++@++++++@++++++@++++++@+++++ .+++@++++++@++++++@++++++@+++++",
" .++@++++++@++++++@++++++@++++++ .++@++++++@++++++@++++++@++++++",
" .+@++++++@++++++@++++++@++++++@ .+@++++++@++++++@++++++@++++++@",
" .@++++++@++++++@++++++@++++++@+ .@++++++@++++++@++++++@++++++@+",
" .++++++@++++++@++++++@++++++@++ .++++++@++++++@++++++@++++++@++",
" .+++++@++++++@++++++@++++++@+++ .+++++@++++++@++++++@++++++@+++",
"++++@++++++@++++ .++++@++++++@++++++@++++++@++++ .++++@++++++@++",
"+++@++++++@+++++ .+++@++++++@++++++@++++++@+++++ .+++@++++++@+++",
"++@++++++@++++++ .++@++++++@++++++@++++++@++++++ .++@++++++@++++",
"+@++++++@++++++@ .+@++++++@++++++@++++++@++++++@ .+@++++++@+++++",
"@++++++@++++++@+ .@++++++@++++++@++++++@++++++@+ .@++++++@++++++",
"++++++@++++++@++ .++++++@++++++@++++++@++++++@++ .++++++@++++++@",
"+++++@++++++@+++ .+++++@++++++@++++++@++++++@+++ .+++++@++++++@+",
"++++@++++++@++++ .++++@++++++@++++++@++++++@++++ .++++@++++++@++",
"                                                                ",
" ............................... ...............................",
" .+++@++++++@++++++@++++++@+++++ .+++@++++++@++++++@++++++@+++++",
" .++@++++++@++++++@++++++@++++++ .++@++++++@++++++@++++++@++++++",
" .+@++++++@++++++@++++++@++++++@ .+@++++++@++++++@++++++@++++++@",
" .@++++++@++++++@++++++@++++++@+ .@++++++@++++++@++++++@++++++@+",
" .++++++@++++++@++++++@++++++@++ .++++++@++++++@++++++@++++++@++",
" .+++++@++++++@++++++@++++++@+++ .+++++@++++++@++++++@++++++@+++",
"++++@++++++@++++ .++++@++++++@++++++@++++++@++++ .++++@++++++@++",
"+++@++++++@+++++ .+++@++++++@++++++@++++++@+++++ .+++@++++++@+++",
"++@++++++@++++++ .++@++++++@++++++@++++++@++++++ .++@++++++@++++",
"+@++++++@++++++@ .+@++++++@++++++@++++++@++++++@ .+@++++++@+++++",
"@++++++@++++++@+ .@++++++@++++++@++++++@++++++@+ .@++++++@++++++",
"++++++@++++++@++ .++++++@++++++@++++++@++++++@++ .++++++@++++++@",
"+++++@++++++@+++ .+++++@++++++@++++++@++++++@+++ .+++++@++++++@+",
"++++@++++++@++++ .++++@++++++@++++++@++++++@++++ .++++@++++++@++"};
