/* XPM */
static char * north_xpm[] = {
"64 64 4 1",
" 	c #281E1E",
".	c #B43C3C",
"+	c #782828",
"@	c #A05050",
"                                                                ",
" ............................... ...............................",
" .+++@++++++@++++++@++++++@+++++ .+++@++++++@++++++@++++++@+++++",
" .++@++++++@++++++@++++++@++++++ .++@++++++@++++++@++++++@++++++",
" .+@++++++@++++++@++++++@++++++@ .+@++++++@++++++@++++++@++++++@",
" .@++++++@++++++@++++++@++++++@+ .@++++++@++++++@++++++@++++++@+",
" .++++++@++++++@++++++@++++++@++ .++++++@++++++@++++++@++++++@++",
" .+++++@++++++@++++++@++++++@+++ .+++++@++++++@++++++@++++++@+++",
"++++@++++++@++++ .++++@++++++@++++++@++++++@++++ .++++@++++++@++",
"+++@++++++@+++++ .+++@++++++@++++++@++++++@+++++ .+++@++++++@+++",
"++@++++++@++++++ .++@++++++@++++++@++++++@++++++ .++@++++++@++++",
"+@++++++@++++++@ .+@++++++@++++++@++++++@++++++@ .+@++++++@+++++",
"@++++++@++++++@+ .@++++++@++++++@++++++@++++++@+ .@++++++@++++++",
"++++++@++++++@++ .++++++@++++++@++++++@++++++@++ .++++++@++++++@",
"+++++@++++++@+++ .+++++@++++++@++++++@++++++@+++ .+++++@++++++@+",
"++++@++++++@++++ .++++@++++++@++++++@++++++@++++ .++++@++++++@++",
"                                                                ",
" ............................... ...............................",
" .+++@++++++@++++++@++++++@+++++ .+++@++++++@++++++@++++++@+++++",
" .++@++++++@++++++@++++++@++++++ .++@++++++@++++++@++++++@++++++",
" .+@ +++++@ +++++@++++++@++++.+@ .+@++++++@++++++@++++++@++++++@",
" .@+  +++@+ ++++@++++++@+++++..+ .@++++++@++++++@++++++@++++++@+",
" .++ + +@++ +++@++++++@++++++.+. .++++++@++++++@++++++@++++++@++",
" .++ +  +++ ++@++++++@++++++@.++..+++++@++++++@++++++@++++++@+++",
"++++ ++  ++ ++++ .++++@++++++.+++.++@++++++@++++ .++++@++++++@++",
"+++@ +++ +@ ++++ .+++@++++++@++++++@++++++@+++++ .+++@++++++@+++",
"++@+ ++++ + ++++ .++@++++++@++++++@++++++@++++++ .++@++++++@++++",
"+@++ +++@   +++@ .+@++++++@++++++@++++++@++++++@ .+@++++++@+++++",
"@+++ ++@++  ++@+ .@++++++@++++++@++++++@++++++@+ .@++++++@++++++",
"++++ +@+++  +@++ .++++++@++++++@++++++@++++++@++ .++++++@++++++@",
"++++ @+++++ @+++ .+++++@++++++@++++++@++++++@+++ .+++++@++++++@+",
"++++@++++++@++++ .++++@++++++@++++++@++++++@++++ .++++@++++++@++",
"                                                                ",
" ............................... ...............................",
" .+++@++++++@++++++@++++++@+++++ .+++@++++++@++++++@++++++@+++++",
" .++@++++++@++++++@++++++@++++++ .++@++++++@++++++@++++++@++++++",
" .+@++++++@++++++@++++++@++++++@ .+@++++++@++++++@++++++@++++++@",
" .@++++++@++++++@++++++@++++++@+ .@++++++@++++++@++++++@++++++@+",
" .++++++@++++++@++++++@++++++@++ .++++++@++++++@++++++@++++++@++",
" .+++++@++++++@++++++@++++++@+++ .+++++@++++++@++++++@++++++@+++",
"++++@++++++@++++ .++++@++++++@++++++@++++++@++++ .++++@++++++@++",
"+++@++++++@+++++ .+++@++++++@++++++@++++++@+++++ .+++@++++++@+++",
"++@++++++@++++++ .++@++++++@++++++@++++++@++++++ .++@++++++@++++",
"+@++++++@++++++@ .+@++++++@++++++@++++++@++++++@ .+@++++++@+++++",
"@++++++@++++++@+ .@++++++@++++++@++++++@++++++@+ .@++++++@++++++",
"++++++@++++++@++ .++++++@++++++@++++++@++++++@++ .++++++@++++++@",
"+++++@++++++@+++ .+++++@++++++@++++++@++++++@+++ .+++++@++++++@+",
"++++@++++++@++++ .++++@++++++@++++++@++++++@++++ .++++@++++++@++",
"                                                                ",
" ............................... ...............................",
" .+++@++++++@++++++@++++++@+++++ .+++@++++++@++++++@++++++@+++++",
" .++@++++++@++++++@++++++@++++++ .++@++++++@++++++@++++++@++++++",
" .+@++++++@++++++@++++++@++++++@ .+@++++++@++++++@++++++@++++++@",
" .@++++++@++++++@++++++@++++++@+ .@++++++@++++++@++++++@++++++@+",
" .++++++@++++++@++++++@++++++@++ .++++++@++++++@++++++@++++++@++",
" .+++++@++++++@++++++@++++++@+++ .+++++@++++++@++++++@++++++@+++",
"++++@++++++@++++ .++++@++++++@++++++@++++++@++++ .++++@++++++@++",
"+++@++++++@+++++ .+++@++++++@++++++@++++++@+++++ .+++@++++++@+++",
"++@++++++@++++++ .++@++++++@++++++@++++++@++++++ .++@++++++@++++",
"+@++++++@++++++@ .+@++++++@++++++@++++++@++++++@ .+@++++++@+++++",
"@++++++@++++++@+ .@++++++@++++++@++++++@++++++@+ .@++++++@++++++",
"++++++@++++++@++ .++++++@++++++@++++++@++++++@++ .++++++@++++++@",
"+++++@++++++@+++ .+++++@++++++@++++++@++++++@+++ .+++++@++++++@+",
"++++@++++++@++++ .++++@++++++@++++++@++++++@++++ .++++@++++++@++"};
