/* XPM */
static char * south_xpm[] = {
"64 64 4 1",
" 	c #192819",
".	c #468C46",
"+	c #285A28",
"@	c #508250",
"                                                                ",
" ............................... ...............................",
" .+++@++++++@++++++@++++++@+++++ .+++@++++++@++++++@++++++@+++++",
" .++@++++++@++++++@++++++@++++++ .++@++++++@++++++@++++++@++++++",
" .+@++++++@++++++@++++++@++++++@ .+@++++++@++++++@++++++@++++++@",
" .@++++++@++++++@++++++@++++++@+ .@++++++@++++++@++++++@++++++@+",
" .++++++@++++++@++++++@++++++@++ .++++++@++++++@++++++@++++++@++",
" .+++++@++++++@++++++@++++++@+++ .+++++@++++++@++++++@++++++@+++",
"++++@++++++@++++ .++++@++++++@++++++@++++++@++++ .++++@++++++@++",
"+++@++++++@+++++ .+++@++++++@++++++@++++++@+++++ .+++@++++++@+++",
"++@++++++@++++++ .++@++++++@++++++@++++++@++++++ .++@++++++@++++",
"+@++++++@++++++@ .+@++++++@++++++@++++++@++++++@ .+@++++++@+++++",
"@++++++@++++++@+ .@++++++@++++++@++++++@++++++@+ .@++++++@++++++",
"++++++@++++++@++ .++++++@++++++@++++++@++++++@++ .++++++@++++++@",
"+++++@++++++@+++ .+++++@++++++@++++++@++++++@+++ .+++++@++++++@+",
"++++@++++++@++++ .++++@++++++@++++++@++++++@++++ .++++@++++++@++",
"                                                                ",
" ............................... ...............................",
" .+++@++++++@++++++@++++++@+++++ .+++@++++++@++++++@++++++@+++++",
" .++@++++++@++++++@++++++@++++++ .++@++++++@++++++@++++++@++++++",
" .+@++++++@++++++@++++++@++++.....+@++++++@++++++@++++++@++++++@",
" .@+++   @++++++@++++++@+++++.@+ .@++++++@++++++@++++++@++++++@+",
" .+++ ++@ +++++@++++++@++++++.....++++++@++++++@++++++@++++++@++",
" .++ ++@++++++@++++++@++++++@+++ .+++++@++++++@++++++@++++++@+++",
"++++ ++++++@++++ .++++@++++++.....++@++++++@++++ .++++@++++++@++",
"+++@+ ++++@+++++ .+++@++++++@++++++@++++++@+++++ .+++@++++++@+++",
"++@+++   @++++++ .++@++++++@++++++@++++++@++++++ .++@++++++@++++",
"+@++++++@ +++++@ .+@++++++@++++++@++++++@++++++@ .+@++++++@+++++",
"@++++++@++ +++@+ .@++++++@++++++@++++++@++++++@+ .@++++++@++++++",
"++++ +@+++ ++@++ .++++++@++++++@++++++@++++++@++ .++++++@++++++@",
"+++++ +++ ++@+++ .+++++@++++++@++++++@++++++@+++ .+++++@++++++@+",
"++++@+   ++@++++ .++++@++++++@++++++@++++++@++++ .++++@++++++@++",
"                                                                ",
" ............................... ...............................",
" .+++@++++++@++++++@++++++@+++++ .+++@++++++@++++++@++++++@+++++",
" .++@++++++@++++++@++++++@++++++ .++@++++++@++++++@++++++@++++++",
" .+@++++++@++++++@++++++@++++++@ .+@++++++@++++++@++++++@++++++@",
" .@++++++@++++++@++++++@++++++@+ .@++++++@++++++@++++++@++++++@+",
" .++++++@++++++@++++++@++++++@++ .++++++@++++++@++++++@++++++@++",
" .+++++@++++++@++++++@++++++@+++ .+++++@++++++@++++++@++++++@+++",
"++++@++++++@++++ .++++@++++++@++++++@++++++@++++ .++++@++++++@++",
"+++@++++++@+++++ .+++@++++++@++++++@++++++@+++++ .+++@++++++@+++",
"++@++++++@++++++ .++@++++++@++++++@++++++@++++++ .++@++++++@++++",
"+@++++++@++++++@ .+@++++++@++++++@++++++@++++++@ .+@++++++@+++++",
"@++++++@++++++@+ .@++++++@++++++@++++++@++++++@+ .@++++++@++++++",
"++++++@++++++@++ .++++++@++++++@++++++@++++++@++ .++++++@++++++@",
"+++++@++++++@+++ .+++++@++++++@++++++@++++++@+++ .+++++@++++++@+",
"++++@++++++@++++ .++++@++++++@++++++@++++++@++++ .++++@++++++@++",
"                                                                ",
" ............................... ...............................",
" .+++@++++++@++++++@++++++@+++++ .+++@++++++@++++++@++++++@+++++",
" .++@++++++@++++++@++++++@++++++ .++@++++++@++++++@++++++@++++++",
" .+@++++++@++++++@++++++@++++++@ .+@++++++@++++++@++++++@++++++@",
" .@++++++@++++++@++++++@++++++@+ .@++++++@++++++@++++++@++++++@+",
" .++++++@++++++@++++++@++++++@++ .++++++@++++++@++++++@++++++@++",
" .+++++@++++++@++++++@++++++@+++ .+++++@++++++@++++++@++++++@+++",
"++++@++++++@++++ .++++@++++++@++++++@++++++@++++ .++++@++++++@++",
"+++@++++++@+++++ .+++@++++++@++++++@++++++@+++++ .+++@++++++@+++",
"++@++++++@++++++ .++@++++++@++++++@++++++@++++++ .++@++++++@++++",
"+@++++++@++++++@ .+@++++++@++++++@++++++@++++++@ .+@++++++@+++++",
"@++++++@++++++@+ .@++++++@++++++@++++++@++++++@+ .@++++++@++++++",
"++++++@++++++@++ .++++++@++++++@++++++@++++++@++ .++++++@++++++@",
"+++++@++++++@+++ .+++++@++++++@++++++@++++++@+++ .+++++@++++++@+",
"++++@++++++@++++ .++++@++++++@++++++@++++++@++++ .++++@++++++@++"};
