/* XPM */
static char * west_xpm[] = {
"64 64 4 1",
" 	c #191E32",
".	c #465AB4",
"+	c #283278",
"@	c #505AA0",
"                                                                ",
" ............................... ...............................",
" .+++@++++++@++++++@++++++@+++++ .+++@++++++@++++++@++++++@+++++",
" .++@++++++@++++++@++++++@++++++ .++@++++++@++++++@++++++@++++++",
" .+@++++++@++++++@++++++@++++++@ .+@++++++@++++++@++++++@++++++@",
" .@++++++@++++++@++++++@++++++@+ .@++++++@++++++@++++++@++++++@+",
" .++++++@++++++@++++++@++++++@++ .++++++@++++++@++++++@++++++@++",
" .+++++@++++++@++++++@++++++@+++ .+++++@++++++@++++++@++++++@+++",
"++++@++++++@++++ .++++@++++++@++++++@++++++@++++ .++++@++++++@++",
"+++@++++++@+++++ .+++@++++++@++++++@++++++@+++++ .+++@++++++@+++",
"++@++++++@++++++ .++@++++++@++++++@++++++@++++++ .++@++++++@++++",
"+@++++++@++++++@ .+@++++++@++++++@++++++@++++++@ .+@++++++@+++++",
"@++++++@++++++@+ .@++++++@++++++@++++++@++++++@+ .@++++++@++++++",
"++++++@++++++@++ .++++++@++++++@++++++@++++++@++ .++++++@++++++@",
"+++++@++++++@+++ .+++++@++++++@++++++@++++++@+++ .+++++@++++++@+",
"++++@++++++@++++ .++++@++++++@++++++@++++++@++++ .++++@++++++@++",
"                                                                ",
" ............................... ...............................",
" .+++@++++++@++++++@++++++@+++++ .+++@++++++@++++++@++++++@+++++",
" .++@++++++@++++++@++++++@++++++ .++@++++++@++++++@++++++@++++++",
" .+@++++++@++++++@++++++@++++.+@ .+@++++++@++++++@++++++@++++++@",
" .@++++++@++++++@++++++@+++++.@+..@++++++@++++++@++++++@++++++@+",
" .+ ++++@++++++ ++++++@++++++... .++++++@++++++@++++++@++++++@++",
" .+ +++@+ ++++@ +++++@++++++@.++..+++++@++++++@++++++@++++++@+++",
"++++ +++   @++ + .++++@++++++.+++.++@++++++@++++ .++++@++++++@++",
"+++@ ++  +  +  + .+++@++++++@++++++@++++++@+++++ .+++@++++++@+++",
"++@++ + +@+ + ++ .++@++++++@++++++@++++++@++++++ .++@++++++@++++",
"+@+++ + @++ + +@ .+@++++++@++++++@++++++@++++++@ .+@++++++@+++++",
"@+++++  +++  +@+ .@++++++@++++++@++++++@++++++@+ .@++++++@++++++",
"++++++ +++++ @++ .++++++@++++++@++++++@++++++@++ .++++++@++++++@",
"+++++@++++++@+++ .+++++@++++++@++++++@++++++@+++ .+++++@++++++@+",
"++++@++++++@++++ .++++@++++++@++++++@++++++@++++ .++++@++++++@++",
"                                                                ",
" ............................... ...............................",
" .+++@++++++@++++++@++++++@+++++ .+++@++++++@++++++@++++++@+++++",
" .++@++++++@++++++@++++++@++++++ .++@++++++@++++++@++++++@++++++",
" .+@++++++@++++++@++++++@++++++@ .+@++++++@++++++@++++++@++++++@",
" .@++++++@++++++@++++++@++++++@+ .@++++++@++++++@++++++@++++++@+",
" .++++++@++++++@++++++@++++++@++ .++++++@++++++@++++++@++++++@++",
" .+++++@++++++@++++++@++++++@+++ .+++++@++++++@++++++@++++++@+++",
"++++@++++++@++++ .++++@++++++@++++++@++++++@++++ .++++@++++++@++",
"+++@++++++@+++++ .+++@++++++@++++++@++++++@+++++ .+++@++++++@+++",
"++@++++++@++++++ .++@++++++@++++++@++++++@++++++ .++@++++++@++++",
"+@++++++@++++++@ .+@++++++@++++++@++++++@++++++@ .+@++++++@+++++",
"@++++++@++++++@+ .@++++++@++++++@++++++@++++++@+ .@++++++@++++++",
"++++++@++++++@++ .++++++@++++++@++++++@++++++@++ .++++++@++++++@",
"+++++@++++++@+++ .+++++@++++++@++++++@++++++@+++ .+++++@++++++@+",
"++++@++++++@++++ .++++@++++++@++++++@++++++@++++ .++++@++++++@++",
"                                                                ",
" ............................... ...............................",
" .+++@++++++@++++++@++++++@+++++ .+++@++++++@++++++@++++++@+++++",
" .++@++++++@++++++@++++++@++++++ .++@++++++@++++++@++++++@++++++",
" .+@++++++@++++++@++++++@++++++@ .+@++++++@++++++@++++++@++++++@",
" .@++++++@++++++@++++++@++++++@+ .@++++++@++++++@++++++@++++++@+",
" .++++++@++++++@++++++@++++++@++ .++++++@++++++@++++++@++++++@++",
" .+++++@++++++@++++++@++++++@+++ .+++++@++++++@++++++@++++++@+++",
"++++@++++++@++++ .++++@++++++@++++++@++++++@++++ .++++@++++++@++",
"+++@++++++@+++++ .+++@++++++@++++++@++++++@+++++ .+++@++++++@+++",
"++@++++++@++++++ .++@++++++@++++++@++++++@++++++ .++@++++++@++++",
"+@++++++@++++++@ .+@++++++@++++++@++++++@++++++@ .+@++++++@+++++",
"@++++++@++++++@+ .@++++++@++++++@++++++@++++++@+ .@++++++@++++++",
"++++++@++++++@++ .++++++@++++++@++++++@++++++@++ .++++++@++++++@",
"+++++@++++++@+++ .+++++@++++++@++++++@++++++@+++ .+++++@++++++@+",
"++++@++++++@++++ .++++@++++++@++++++@++++++@++++ .++++@++++++@++"};
